apps/symbolic/gitg-symbolic.svg

<?xml version="1.0" encoding="UTF-8" standalone="no"?>
<svg
   xmlns:dc="http://purl.org/dc/elements/1.1/"
   xmlns:cc="http://creativecommons.org/ns#"
   xmlns:rdf="http://www.w3.org/1999/02/22-rdf-syntax-ns#"
   xmlns:svg="http://www.w3.org/2000/svg"
   xmlns="http://www.w3.org/2000/svg"
   xmlns:sodipodi="http://sodipodi.sourceforge.net/DTD/sodipodi-0.dtd"
   xmlns:inkscape="http://www.inkscape.org/namespaces/inkscape"
   version="1.1"
   width="24"
   height="24"
   viewBox="0 0 24 24"
   id="svg2"
   inkscape:version="0.92.1 r15371"
   sodipodi:docname="gitg-symbolic.svg">
  <metadata
     id="metadata10">
    <rdf:RDF>
      <cc:Work
         rdf:about="">
        <dc:format>image/svg+xml</dc:format>
        <dc:type
           rdf:resource="http://purl.org/dc/dcmitype/StillImage" />
      </cc:Work>
    </rdf:RDF>
  </metadata>
  <defs
     id="defs8" />
  <sodipodi:namedview
     pagecolor="#ffffff"
     bordercolor="#666666"
     borderopacity="1"
     objecttolerance="10"
     gridtolerance="10"
     guidetolerance="10"
     inkscape:pageopacity="0"
     inkscape:pageshadow="2"
     inkscape:window-width="640"
     inkscape:window-height="480"
     id="namedview6"
     showgrid="false"
     inkscape:zoom="25.291667"
     inkscape:cx="5.0411862"
     inkscape:cy="12"
     inkscape:current-layer="svg2" />
  <path
     d="M 3.5336503,10.730048 8.7395548,5.5151365 10.261696,7.0462848 c -0.216162,0.7655742 0.135102,1.6032024 0.837628,2.0085063 v 4.9897419 c -0.540405,0.30623 -0.900675,0.891669 -0.900675,1.558169 A 1.801351,1.801351 0 0 0 12,17.404053 1.801351,1.801351 0 0 0 13.801351,15.602702 c 0,-0.6665 -0.36027,-1.251939 -0.900675,-1.558169 V 9.6672501 l 1.864398,1.8824119 C 14.702024,11.684764 14.702024,11.837878 14.702024,12 A 1.801351,1.801351 0 0 0 16.503375,13.801351 1.801351,1.801351 0 0 0 18.304726,12 1.801351,1.801351 0 0 0 16.503375,10.198649 c -0.162122,0 -0.315237,0 -0.450338,0.06305 L 13.738304,7.9469603 C 13.972479,7.1093321 13.540155,6.1906431 12.702527,5.8393796 12.315236,5.6952716 11.909932,5.6592445 11.549662,5.7583188 L 10.018514,4.2361772 10.730048,3.5336503 c 0.702526,-0.7115336 1.837378,-0.7115336 2.539904,0 l 7.196398,7.1963977 c 0.711533,0.702526 0.711533,1.837378 0,2.539904 l -7.196398,7.196398 c -0.702526,0.711533 -1.837378,0.711533 -2.539904,0 L 3.5336503,13.269952 c -0.7115336,-0.702526 -0.7115336,-1.837378 0,-2.539904 z"
     id="path4"
     style="fill:#bebebe;fill-opacity:1;stroke-width:0.90067554"
     inkscape:connector-curvature="0" />
</svg>

<svg xmlns="http://www.w3.org/2000/svg" viewBox="0 0 24 24">
  <path fill="#bebebe" d="M3.534 10.73L8.74 5.515l1.522 1.531c-.216.766.135 1.603.837 2.009v4.99c-.54.306-.9.891-.9 1.558A1.801 1.801 0 0 0 12 17.404a1.801 1.801 0 0 0 1.801-1.801c0-.667-.36-1.252-.9-1.558V9.667l1.864 1.883c-.063.135-.063.288-.063.45a1.801 1.801 0 0 0 1.801 1.801A1.801 1.801 0 0 0 18.305 12a1.801 1.801 0 0 0-1.802-1.801c-.162 0-.315 0-.45.063l-2.315-2.315a1.783 1.783 0 0 0-1.035-2.108c-.388-.144-.793-.18-1.153-.08l-1.531-1.523.711-.702a1.778 1.778 0 0 1 2.54 0l7.196 7.196a1.778 1.778 0 0 1 0 2.54l-7.196 7.196a1.778 1.778 0 0 1-2.54 0L3.534 13.27a1.778 1.778 0 0 1 0-2.54z"/>
</svg>
